!!!!SEGMENT: chor280.krn
!!!COM: Bach, Johann Sebastian
!!!CDT: 1685/02/21/-1750/07/28/
!!!OTL@@DE: Eins ist not, ach Herr, dies eine
!!!SCT: BWV 304
!!!PC#: 280
!!!AGN: chorale
**kern	**kern	**kern	**kern
*ICvox	*ICvox	*ICvox	*ICvox
*Ibass	*Itenor	*Ialto	*Isoprn
*I"Bass	*I"Tenor	*I"Alto	*I"Soprano
*clefF4	*clefGv2	*clefG2	*clefG2
*k[f#c#]	*k[f#c#]	*k[f#c#]	*k[f#c#]
*D:	*D:	*D:	*D:
*M3/4	*M3/4	*M3/4	*M3/4
*met(c)	*met(c)	*met(c)	*met(c)
*MM100	*MM100	*MM100	*MM100
8DL	4F#	4A	8dL
8C#J	.	.	8eJ
=18	=18	=18	=18
4BB	4B	4d	4f#
8BL	4B	4d	4f#
8AJ	.	.	.
8GL	4A	4d	4f#
8F#J	.	.	.
=19	=19	=19	=19
4G#	4B	4d	4e
4E	8AL	8c#L	4e
.	8G#J	8BJ	.
4A	4A	8c#L	8eL
.	.	8dJ	8f#J
=20	=20	=20	=20
4C#	4A	4e	4g
8DL	4B	4e	4g
8C#J	.	.	.
8BBL	4c#	4e	8gL
8AAJ	.	.	8f#J
=21	=21	=21	=21
2D	2A	4e	2f#
.	.	4d	.
4r	4A	4r	4f#
=22	=22	=22	=22
4BB	8dL	4d	4.b
.	8c#J	.	.
4E	4.B	8gL	.
.	.	8f#J	8a
8E	.	[4e	4g
8D	8B	.	.
=23	=23	=23	=23
8C#L	4.A	8eL]	4.a
8AAJ	.	8gJ	.
4.D	.	8f#L	.
.	8c#	8eJ	8g
.	4d	8d	4f#
8C#	.	8A	.
=24	=24	=24	=24
4BB	4D	4.d	4g
8AAL	4A	.	4f#
8GGJ	.	8e	.
4AA	8AL	4c#	4e
.	8GJ	.	.
=25	=25	=25	=25
2.D;	2.F#;	2.A;	2.d;
==	==	==	==
*-	*-	*-	*-